img/final.svg

<svg width="167" height="156" viewBox="0 0 167 156" fill="none" xmlns="http://www.w3.org/2000/svg">
<path fill-rule="evenodd" clip-rule="evenodd" d="M133.174 0.019043H34.3715V11.4889H0.0179443V65.2894C0.0179443 86.082 23.2094 103.192 45.9672 104.972C53.4382 112.982 66.5793 118.801 78.2751 121.282V135.344C67.0907 138.781 47.1123 146.858 45.9672 155.658H122.723C121.567 146.858 99.5542 138.77 88.3476 135.344V121.282C100.088 118.801 113.818 112.982 121.3 104.972C144.047 103.192 166.216 86.082 166.216 65.2894V11.4889H133.174V0.019043ZM10.5686 21.6794H33.571V68.0262C33.571 77.1709 35.9279 85.8707 40.0748 93.7027C22.8647 88.218 10.5686 74.0893 10.5686 57.5575V21.6794ZM100.666 78.2055L83.5004 68.7382L66.3125 78.2055L69.5922 58.1805L55.6951 44.0073L74.8953 41.0814L83.5004 22.8809L92.0832 41.0814L111.283 44.0073L97.3863 58.1805L100.666 78.2055ZM126.181 95.1823C130.35 86.9943 132.74 77.9385 132.74 68.3599V21.9798H155.798V57.424C155.798 74.7012 143.447 89.4529 126.181 95.1823Z" fill="#FFBCA2"/>
</svg>

<svg width="167" height="156" fill="none" xmlns="http://www.w3.org/2000/svg"><path fill-rule="evenodd" clip-rule="evenodd" d="M133.174.019H34.371v11.47H.018v53.8c0 20.793 23.191 37.903 45.95 39.683 7.47 8.01 20.611 13.829 32.307 16.31v14.062c-11.184 3.437-31.163 11.514-32.308 20.314h76.756c-1.156-8.8-23.169-16.888-34.375-20.314v-14.062c11.74-2.481 25.47-8.3 32.952-16.31 22.747-1.78 44.916-18.89 44.916-39.683v-53.8h-33.042V.019ZM10.569 21.679H33.57v46.347c0 9.145 2.357 17.845 6.504 25.677-17.21-5.485-29.506-19.614-29.506-36.146V21.68Zm90.097 56.526L83.5 68.739l-17.188 9.468 3.28-20.026-13.897-14.173 19.2-2.926 8.605-18.2 8.583 18.2 19.2 2.926-13.897 14.174 3.28 20.025Zm25.515 16.977c4.169-8.188 6.559-17.243 6.559-26.822V21.98h23.058v35.444c0 17.277-12.351 32.029-29.617 37.758Z" fill="#FFBCA2"/></svg>
